Sources/FrostedUI/Resources/Icons.xcassets/twitterFilledSize16.imageset/twitter-filled-size-16.svg

<svg
  width="16"
  height="16"
  viewBox="0 0 16 16"
  fill="none"
  xmlns="http://www.w3.org/2000/svg"
  data-fui-icon="true"
>
  <path
    d="M15.5 3.42083C14.9484 3.66143 14.3558 3.82399 13.7329 3.89747C14.3683 3.52292 14.8559 2.92858 15.0858 2.22109C14.4913 2.56833 13.8326 2.82063 13.1317 2.95589C12.5701 2.36805 11.7708 2 10.8856 2C9.18647 2 7.8084 3.35645 7.8084 5.03024C7.8084 5.26693 7.8362 5.49713 7.88767 5.71952C5.32912 5.59272 3.06254 4.38647 1.54444 2.55403C1.28019 3.00271 1.12825 3.52292 1.12825 4.07695C1.12825 5.12778 1.67194 6.05571 2.49705 6.59868C1.99234 6.58242 1.51801 6.44651 1.10315 6.21957V6.25859C1.10315 7.72627 2.16344 8.95067 3.57187 9.229C3.31291 9.29793 3.0414 9.33433 2.76129 9.33433C2.56311 9.33433 2.36955 9.31613 2.18193 9.281C2.57368 10.484 3.70995 11.3606 5.05695 11.384C4.00326 12.1968 2.67608 12.6813 1.23461 12.6813C0.986213 12.6813 0.741127 12.6669 0.5 12.639C1.86219 13.4993 3.47939 14 5.21681 14C10.8783 14 13.9733 9.3844 13.9733 5.38138C13.9733 5.25133 13.97 5.11997 13.9641 4.98992C14.5652 4.56205 15.0871 4.02948 15.4987 3.42278L15.5 3.42083Z"
    fill="currentColor"
  />
</svg>

<svg xmlns="http://www.w3.org/2000/svg" width="16" height="16" fill="none" data-fui-icon="true" viewBox="0 0 16 16"><path fill="currentColor" d="M15.5 3.42a6.2 6.2 0 0 1-1.767.477 3.05 3.05 0 0 0 1.353-1.676c-.595.347-1.253.6-1.954.735A3.1 3.1 0 0 0 10.886 2c-1.7 0-3.078 1.356-3.078 3.03q.001.356.08.69a8.79 8.79 0 0 1-6.344-3.166 3 3 0 0 0-.416 1.523c0 1.05.544 1.979 1.37 2.522a3.1 3.1 0 0 1-1.395-.38v.04c0 1.467 1.06 2.692 2.469 2.97a3.15 3.15 0 0 1-1.39.052 3.07 3.07 0 0 0 2.875 2.103 6.24 6.24 0 0 1-3.822 1.297q-.374 0-.735-.042A8.8 8.8 0 0 0 5.217 14c5.661 0 8.756-4.616 8.756-8.619q0-.196-.009-.391A6.2 6.2 0 0 0 15.5 3.423z"/></svg>
